dist/images/svg_sprite/calculator.svg

<svg width="60" height="65" viewBox="0 0 60 65" fill="none" xmlns="http://www.w3.org/2000/svg">
<path d="M56.9999 23.74H55.9999V0H15.9999V4.31637H11.9999V62.5873H33.9999V64.7455H59.9999V26.9773C59.9999 25.1895 58.6566 23.74 56.9999 23.74ZM17.9999 2.15818H53.9999V23.74H51.9999V13.5814L43.4139 4.31637H17.9999V2.15818ZM43.9999 8.00045L48.5858 12.9491H43.9999V8.00045ZM13.9999 60.4291V6.47455H41.9999V15.1073H49.9999V23.74H36.9999C35.3427 23.74 33.9999 25.1895 33.9999 26.9773V60.4291H13.9999ZM57.9999 62.5873H35.9999V26.9773C35.9999 26.3814 36.4476 25.8982 36.9999 25.8982H56.9999C57.5521 25.8982 57.9999 26.3814 57.9999 26.9773V62.5873Z" fill="#4054B2"/>
<path d="M37 35.61H57V26.9773H37V35.61ZM39 29.1355H55V33.4519H39V29.1355Z" fill="#4054B2"/>
<path d="M41 39.9263H39C37.8955 39.9263 37 40.8926 37 42.0845V44.2426C37 45.4345 37.8955 46.4008 39 46.4008H41C42.1045 46.4008 43 45.4345 43 44.2426V42.0845C43 40.8926 42.1045 39.9263 41 39.9263ZM39 44.2426V42.0845H41V44.2426H39Z" fill="#4054B2"/>
<path d="M48 39.9263H46C44.8955 39.9263 44 40.8926 44 42.0845V44.2426C44 45.4345 44.8955 46.4008 46 46.4008H48C49.1045 46.4008 50 45.4345 50 44.2426V42.0845C50 40.8926 49.1045 39.9263 48 39.9263ZM46 44.2426V42.0845H48V44.2426H46Z" fill="#4054B2"/>
<path d="M55 39.9263H53C51.8955 39.9263 51 40.8926 51 42.0845V44.2426C51 45.4345 51.8955 46.4008 53 46.4008H55C56.1045 46.4008 57 45.4345 57 44.2426V42.0845C57 40.8926 56.1045 39.9263 55 39.9263ZM53 44.2426V42.0845H55V44.2426H53Z" fill="#4054B2"/>
<path d="M41 47.48H39C37.8955 47.48 37 48.4463 37 49.6382V51.7963C37 52.9882 37.8955 53.9545 39 53.9545H41C42.1045 53.9545 43 52.9882 43 51.7963V49.6382C43 48.4463 42.1045 47.48 41 47.48ZM39 51.7963V49.6382H41V51.7963H39Z" fill="#4054B2"/>
<path d="M48 47.48H46C44.8955 47.48 44 48.4463 44 49.6382V51.7963C44 52.9882 44.8955 53.9545 46 53.9545H48C49.1045 53.9545 50 52.9882 50 51.7963V49.6382C50 48.4463 49.1045 47.48 48 47.48ZM46 51.7963V49.6382H48V51.7963H46Z" fill="#4054B2"/>
<path d="M55 47.48H53C51.8955 47.48 51 48.4463 51 49.6382V51.7963C51 52.9882 51.8955 53.9545 53 53.9545H55C56.1045 53.9545 57 52.9882 57 51.7963V49.6382C57 48.4463 56.1045 47.48 55 47.48ZM53 51.7963V49.6382H55V51.7963H53Z" fill="#4054B2"/>
<path d="M41 55.0337H39C37.8955 55.0337 37 56 37 57.1919V59.3501C37 60.5419 37.8955 61.5082 39 61.5082H41C42.1045 61.5082 43 60.5419 43 59.3501V57.1919C43 56 42.1045 55.0337 41 55.0337ZM39 59.3501V57.1919H41V59.3501H39Z" fill="#4054B2"/>
<path d="M48 55.0337H46C44.8955 55.0337 44 56 44 57.1919V59.3501C44 60.5419 44.8955 61.5082 46 61.5082H48C49.1045 61.5082 50 60.5419 50 59.3501V57.1919C50 56 49.1045 55.0337 48 55.0337ZM46 59.3501V57.1919H48V59.3501H46Z" fill="#4054B2"/>
<path d="M55 55.0337H53C51.8955 55.0337 51 56 51 57.1919V59.3501C51 60.5419 51.8955 61.5082 53 61.5082H55C56.1045 61.5082 57 60.5419 57 59.3501V57.1919C57 56 56.1045 55.0337 55 55.0337ZM53 59.3501V57.1919H55V59.3501H53Z" fill="#4054B2"/>
<path d="M5 6.47461C2.23975 6.4783 0.00292975 8.8915 0 11.8701V54.2091L5 65.0001L10 54.2091V11.8701C9.99658 8.8915 7.75977 6.4783 5 6.47461ZM4 50.2706L2.84473 49.0244L2 50.3939V21.5819H4V50.2706ZM2.15381 54.0321L3.15381 52.4135L5 54.4015L6.84473 52.4103L7.84473 54.0289L5 60.1747L2.15381 54.0321ZM8 50.3939L7.15479 49.0266L6 50.2706V21.5819H8V50.3939ZM8 19.4237H2V17.2655H8V19.4237ZM2 15.1073V11.8701C2 10.0823 3.34277 8.63279 5 8.63279C6.65674 8.63279 8 10.0823 8 11.8701V15.1073H2Z" fill="#4054B2"/>
<path d="M17.9998 15.1074H19.9998V17.2656H17.9998V15.1074Z" fill="#4054B2"/>
<path d="M22 15.1074H38V17.2656H22V15.1074Z" fill="#4054B2"/>
<path d="M17.9998 19.4236H19.9998V21.5818H17.9998V19.4236Z" fill="#4054B2"/>
<path d="M22 19.4236H38V21.5818H22V19.4236Z" fill="#4054B2"/>
<path d="M17.9998 23.74H19.9998V25.8982H17.9998V23.74Z" fill="#4054B2"/>
<path d="M22 23.74H32V25.8982H22V23.74Z" fill="#4054B2"/>
<path d="M17.9998 28.0564H19.9998V30.2146H17.9998V28.0564Z" fill="#4054B2"/>
<path d="M22 28.0564H32V30.2146H22V28.0564Z" fill="#4054B2"/>
<path d="M17.9998 32.3728H19.9998V34.531H17.9998V32.3728Z" fill="#4054B2"/>
<path d="M22 32.3728H32V34.531H22V32.3728Z" fill="#4054B2"/>
<path d="M17.9998 36.6892H19.9998V38.8474H17.9998V36.6892Z" fill="#4054B2"/>
<path d="M22 36.6892H32V38.8474H22V36.6892Z" fill="#4054B2"/>
<path d="M17.9998 41.0056H19.9998V43.1638H17.9998V41.0056Z" fill="#4054B2"/>
<path d="M22 41.0056H32V43.1638H22V41.0056Z" fill="#4054B2"/>
<path d="M17.9998 45.3218H19.9998V47.48H17.9998V45.3218Z" fill="#4054B2"/>
<path d="M22 45.3218H32V47.48H22V45.3218Z" fill="#4054B2"/>
<path d="M22 49.6382H24V51.7964H22V49.6382Z" fill="#4054B2"/>
<path d="M26 49.6382H28V51.7964H26V49.6382Z" fill="#4054B2"/>
<path d="M30 49.6382H32V51.7964H30V49.6382Z" fill="#4054B2"/>
</svg>

<svg width="60" height="65" fill="none" xmlns="http://www.w3.org/2000/svg"><path d="M57 23.74h-1V0H16v4.316h-4v58.271h22v2.159h26V26.977c0-1.788-1.343-3.237-3-3.237zM18 2.158h36V23.74h-2V13.581l-8.586-9.265H18V2.158zM44 8l4.586 4.95H44V8zM14 60.43V6.474h28v8.632h8v8.633H37c-1.657 0-3 1.45-3 3.237V60.43H14zm44 2.157H36v-35.61c0-.596.448-1.079 1-1.079h20c.552 0 1 .483 1 1.08v35.61z" fill="#4054B2"/><path d="M37 35.61h20v-8.633H37v8.633zm2-6.474h16v4.316H39v-4.316zm2 10.79h-2c-1.105 0-2 .967-2 2.158v2.159c0 1.191.895 2.158 2 2.158h2c1.105 0 2-.967 2-2.158v-2.159c0-1.191-.895-2.158-2-2.158zm-2 4.317v-2.159h2v2.159h-2zm9-4.317h-2c-1.105 0-2 .967-2 2.158v2.159c0 1.191.895 2.158 2 2.158h2c1.105 0 2-.967 2-2.158v-2.159c0-1.191-.895-2.158-2-2.158zm-2 4.317v-2.159h2v2.159h-2zm9-4.317h-2c-1.105 0-2 .967-2 2.158v2.159c0 1.191.895 2.158 2 2.158h2c1.105 0 2-.967 2-2.158v-2.159c0-1.191-.895-2.158-2-2.158zm-2 4.317v-2.159h2v2.159h-2zM41 47.48h-2c-1.105 0-2 .966-2 2.158v2.158c0 1.192.895 2.159 2 2.159h2c1.105 0 2-.967 2-2.159v-2.158c0-1.192-.895-2.158-2-2.158zm-2 4.316v-2.158h2v2.158h-2zm9-4.316h-2c-1.105 0-2 .966-2 2.158v2.158c0 1.192.895 2.159 2 2.159h2c1.105 0 2-.967 2-2.159v-2.158c0-1.192-.895-2.158-2-2.158zm-2 4.316v-2.158h2v2.158h-2zm9-4.316h-2c-1.105 0-2 .966-2 2.158v2.158c0 1.192.895 2.159 2 2.159h2c1.105 0 2-.967 2-2.159v-2.158c0-1.192-.895-2.158-2-2.158zm-2 4.316v-2.158h2v2.158h-2zm-12 3.238h-2c-1.105 0-2 .966-2 2.158v2.158c0 1.192.895 2.158 2 2.158h2c1.105 0 2-.966 2-2.158v-2.158c0-1.192-.895-2.158-2-2.158zm-2 4.316v-2.158h2v2.158h-2zm9-4.316h-2c-1.105 0-2 .966-2 2.158v2.158c0 1.192.895 2.158 2 2.158h2c1.105 0 2-.966 2-2.158v-2.158c0-1.192-.895-2.158-2-2.158zm-2 4.316v-2.158h2v2.158h-2zm9-4.316h-2c-1.105 0-2 .966-2 2.158v2.158c0 1.192.895 2.158 2 2.158h2c1.105 0 2-.966 2-2.158v-2.158c0-1.192-.895-2.158-2-2.158zm-2 4.316v-2.158h2v2.158h-2zM5 6.475C2.24 6.478.003 8.892 0 11.87v42.34L5 65l5-10.79V11.87c-.003-2.978-2.24-5.392-5-5.395zM4 50.27l-1.155-1.247L2 50.394V21.582h2V50.27zm-1.846 3.761l1-1.618L5 54.4l1.845-1.99 1 1.618L5 60.175l-2.846-6.143zM8 50.394l-.845-1.367L6 50.27V21.58h2v28.813zm0-30.97H2v-2.159h6v2.159zm-6-4.317V11.87c0-1.788 1.343-3.237 3-3.237s3 1.45 3 3.237v3.237H2zm16 0h2v2.159h-2v-2.159zm4 0h16v2.159H22v-2.159zm-4 4.317h2v2.158h-2v-2.158zm4 0h16v2.158H22v-2.158zm-4 4.316h2v2.158h-2V23.74zm4 0h10v2.158H22V23.74zm-4 4.316h2v2.159h-2v-2.159zm4 0h10v2.159H22v-2.159zm-4 4.317h2v2.158h-2v-2.158zm4 0h10v2.158H22v-2.158zm-4 4.317h2v2.157h-2V36.69zm4 0h10v2.157H22V36.69zm-4 4.316h2v2.158h-2v-2.158zm4 0h10v2.158H22v-2.158zm-4 4.316h2v2.158h-2v-2.158zm4 0h10v2.158H22v-2.158zm0 4.316h2v2.158h-2v-2.158zm4 0h2v2.158h-2v-2.158zm4 0h2v2.158h-2v-2.158z" fill="#4054B2"/></svg>
